!!!!SEGMENT: pl-sa--68-a-ii-8--009_mrozowski-tadeusz--missa-ex-g-presto.krn
!!!cenid: 17xx:366
!!!COM: Mrozowski, Tadeusz
!!!COM-rismID: pe30020313
!!!CDT: <1790->1810
!!!CNT:
!!!OPR: Missa ex G
!!!OTL: Presto
!!!OMV: 009
!!!PDT:
!!!AGN: Sacred; Mass
!!!SMS-siglum: PL-SA
!!!SMS-shelfmark: 68/A II 8
!!!SMS-shelfwork: 001-009 M
!!!SMS-variant:
!!!SMS-altvar:
!!!NIFC-rismSourceID: 1001035348
!!!NIFC-rismChildID: 1001035348
!!!NIFC-islandoraID:
!!!URL-pdf-islandora:
!!!URL-scan: https://bc.bdsandomierz.pl/dlibra/publication/1339/edition/1307/content @EN{Scan in the Sandomierz Diocese Digital Library} @PL{Skany w portalu Cyfrowa Biblioteka Diecezjalna w Sandomierzu}
!!!ONB-nifc: UWAGA: części Mszy: Kyrie, Gloria, Symphonia post Epistolam, Credo, Tantum Ergo Sacramentum, Sanctus, Agnus, Dona nobis, Presto
!!!AIN: 1 cbass 1 soprn 2 violn
!!!key: G
**kern	**dynam	**kern	**dynam	**kern	**dynam	**kern
*part4	*part4	*part3	*part3	*part2	*part2	*part1
*staff4	*	*staff3	*	*staff2	*	*staff1
*I"Baſso	*	*I"Violino 2do.	*	*I"Violino. Primo.	*	*I"Canto Solo.
*I'cb	*	*I'vl 2	*	*I'vl 1	*	*I'S solo
*Icbass	*	*Ivioln	*	*Ivioln	*	*Isoprn
*ICstr	*	*ICstr	*	*ICstr	*	*ICvox
*IGcont	*	*IGacmp	*	*IGacmp	*	*IGsolo
*clefF4	*	*clefG2	*	*clefG2	*	*clefC1
*k[f#]	*	*k[f#]	*	*k[f#]	*	*k[f#]
*G:	*	*G:	*	*G:	*	*G:
*M2/4	*	*M2/4	*	*M2/4	*	*M2/4
=1	=1	=1	=1	=1	=1	=1
!LO:TX:a:i:t=Presto	!	!LO:TX:a:i:t=Presto ut Finale.	!	!LO:TX:a:i:t=Presto.	!	!
4G\	p	8r	.	8r	p	2ryy
.	.	8b\L	p	8dd\L	.	.
4r	.	8g\	.	8b\	.	.
.	.	8b\J	.	8dd\J	.	.
=2	=2	=2	=2	=2	=2	=2
4c\	.	8r	.	8r	.	2ryy
.	.	8cc\L	.	8ee\L	.	.
4r	.	8a\	.	8cc\	.	.
.	.	8cc\J	.	8ee\J	.	.
=3	=3	=3	=3	=3	=3	=3
4D\	.	8r	.	8r	.	2ryy
.	.	8a/L	.	8ff#\L	.	.
4r	.	8f#/	.	8dd\	.	.
.	.	8a/J	.	8ff#\J	.	.
=4	=4	=4	=4	=4	=4	=4
4G\	.	16b\LL	.	16gg\LL	.	2ryy
.	.	16cc\	.	16aa\	.	.
.	.	16dd\	.	16bb\	.	.
.	.	16cc\JJ	.	16aa\JJ	.	.
!	!	!LO:SIC:v:s=8b\	!	!	!	!
4r	.	8a\	.	8gg\	.	.
!	!	!	!	!LO:TX:b:t=+	!	!
.	.	8r	.	8r	.	.
=5	=5	=5	=5	=5	=5	=5
8r	.	16r	.	(16b\LL	.	2ryy
.	.	16b\LL	.	16dd\	f	.
8G'\L	.	16g\	.	16cc#X\	.	.
.	.	16b\JJ	.	16dd\JJ)	.	.
8G'\	.	8g/L	.	8b\L|	.	.
8G'\J	.	8g/J	.	8g\J|	.	.
=6	=6	=6	=6	=6	=6	=6
8r	.	16r	.	(16g\LL	.	2ryy
!	!	!LO:TX:a:t=c	!	!	!	!
.	.	16cc\LL	.	16ee\	.	.
!	!	!LO:TX:a:t=h	!	!	!	!
8c'\L	.	16b\	.	16dd\	.	.
!	!	!LO:TX:a:t=c	!	!	!	!
.	.	16cc\JJ	.	16ee\JJ)	.	.
8c'\	.	8a'/L	.	8cc\L|	.	.
8c'\J	.	8a'/J	.	8a\J|	.	.
=7	=7	=7	=7	=7	=7	=7
8F#\|	.	16a/LL|	.	16ff#\LL	.	2ryy
.	.	16a/|	.	16ff#\	.	.
8r	.	(16g/	.	16dd\	.	.
.	.	16a'/JJ)	.	16ff#\JJ	.	.
8G\|	.	16b\LL	.	16gg\LL	.	.
.	.	(16dd\	.	16bb\	.	.
8r	.	16cc\	.	16aa\	.	.
.	.	16b\JJ)	.	16gg\JJ	.	.
=8	=8	=8	=8	=8	=8	=8
8F#\	.	16a/LL|	.	16ff#\LL	.	2ryy
.	.	16a/	.	16ff#\	.	.
8r	.	(16g/	.	16dd\	.	.
.	.	16a/JJ)	.	16ff#\JJ	.	.
!LO:LB:g=original	!	!	!	!	!	!
8G\	.	16b\LL	.	16gg\LL	.	.
.	.	(16dd\	.	16bb\	.	.
8r	.	16cc\	.	16aa\	.	.
.	.	16b\JJ)	.	16gg\JJ	.	.
!	!	!LO:LB:g=original	!	!	!	!
=9	=9	=9	=9	=9	=9	=9
*tremolo	*	*	*	*	*	*
*2\right	*	*	*	*	*	*
8D\L	f	16d/LL	.	16ff#\LL	.	2ryy
.	.	16a/	.	16dd\	.	.
8D\	.	16f#/	.	16dd\	.	.
.	.	16a/JJ	.	16dd\JJ	.	.
*	*	*rep	*	*	*	*
8D\	.	16d/LL	.	16dd\LL	.	.
.	.	16a/	.	16a\	.	.
8D\J	.	16f#/	.	16a\	.	.
.	.	16a/JJ	.	16a\JJ	.	.
*	*	*Xrep	*	*	*	*
=10	=10	=10	=10	=10	=10	=10
!	!	!LO:TX:t=P:problem=takt zapisany repetycją	!	!	!	!
8D\L	.	16d/LLyy	.	16a/LL	.	2ryy
.	.	16a/yy	.	16f#/	.	.
8D\	.	16f#/yy	.	16f#/	.	.
.	.	16a/JJyy	.	16f#/JJ	.	.
!	!	!	!	!LO:LB:g=original	!	!
*	*	*rep	*	*	*	*
8D\	.	16d/LLyy	.	16f#/LL	.	.
.	.	16a/yy	.	16d/	.	.
8D\J	.	16f#/yy	.	16d/	.	.
.	.	16a/JJyy	.	16d/JJ	.	.
*	*	*Xrep	*	*	*	*
=11	=11	=11	=11	=11	=11	=11
8G\L	.	16d/LL	.	16gg\LL	.	2ryy
.	.	16b/	.	16dd\	.	.
8G\	.	16g/	.	16dd\	.	.
.	.	16b/JJ	.	16dd\JJ	.	.
*	*	*rep	*	*	*	*
8G\	.	16d/LL	.	16dd\LL	.	.
.	.	16b/	.	16b\	.	.
8G\J	.	16g/	.	16b\	.	.
.	.	16b/JJ	.	16b\JJ	.	.
*	*	*Xrep	*	*	*	*
=12	=12	=12	=12	=12	=12	=12
8G\L	.	16d/LL	.	16b/LL	.	2ryy
.	.	16b/	.	16g/	.	.
8G\	.	16g/	.	16g/	.	.
.	.	16b/JJ	.	16g/JJ	.	.
*	*	*rep	*	*	*	*
8G\	.	16d/LL	.	16g/LL	.	.
.	.	16b/	.	16d/	.	.
8G\J	.	16g/	.	16d/	.	.
.	.	16b/JJ	.	16d/JJ	.	.
*	*	*Xrep	*	*	*	*
=13	=13	=13	=13	=13	=13	=13
8D\L	.	16d/LL	.	16ff#\LL	.	2ryy
.	.	16a/	.	16dd\	.	.
8D\	.	16f#/	.	16dd\	.	.
.	.	16a/JJ	.	16dd\JJ	.	.
*	*	*rep	*	*	*	*
8D\	.	16d/LL	.	16dd\LL	.	.
.	.	16a/	.	16a\	.	.
8D\J	.	16f#/	.	16a\	.	.
.	.	16a/JJ	.	16a\JJ	.	.
*	*	*Xrep	*	*	*	*
=14	=14	=14	=14	=14	=14	=14
8D\L	.	16d/LL	.	16a/LL	.	2ryy
.	.	16a/	.	16f#/	.	.
8D\	.	16f#/	.	16f#/	.	.
.	.	16a/JJ	.	16f#/JJ	.	.
*	*	*rep	*	*	*	*
8D\	.	16d/LL	.	16f#/LL	.	.
.	.	16a/	.	16d/	.	.
8D\J	.	16f#/	.	16d/	.	.
.	.	16a/JJ	.	16d/JJ	.	.
*Xtremolo	*	*Xrep	*	*	*	*
=15	=15	=15	=15	=15	=15	=15
!	!	!LO:TX:a:t=P:problem=mixed beam	!	!LO:TX:a:t=P:problem=mixed beam	!	!
16D\LL	.	16d/LL	.	16d/LL	.	2ryy
16d\	.	16dd\	.	16dd\	.	.
16c#X\	.	16cc#X\	.	16cc#X\	.	.
16d\JJ	.	16dd\JJ	.	16dd\JJ	.	.
16A\LL	.	16a/LL	.	16a/LL	.	.
16G\	.	16g/	.	16g/	.	.
16F#\	.	16f#/	.	16f#/	.	.
16E\JJ	.	16e/JJ	.	16e/JJ	.	.
=16	=16	=16	=16	=16	=16	=16
4D\	.	4d/	.	4d/	.	2ryy
4r	.	4r	.	4r	.	.
=17	=17	=17	=17	=17	=17	=17
*	*	*tremolo	*	*tremolo	*	*
*	*	*2\right	*	*2\right	*	*
!	!	!	!LO:DY:t=pp	!	!	!
8r	pp	8ff#\L	pp	8aa\L	p	2ryy
8D\L|	.	8ff#\	.	8aa\	.	.
8D\|	.	8ff#\	.	8aa\	.	.
8D\J|	.	8ff#\J	.	8aa\J	.	.
*	*	*Xtremolo	*	*Xtremolo	*	*
!LO:LB:g=original	!	!	!	!	!	!
=18	=18	=18	=18	=18	=18	=18
8r	.	8.ff#\L	.	8.aa\L	.	2ryy
8D\L|	.	.	.	.	.	.
.	.	16ee\Jk	.	16gg\Jk	.	.
8D\|	.	8dd\L	.	8ff#'\L	.	.
8D\J|	.	8dd\J	.	8ff#'\J	.	.
=19	=19	=19	=19	=19	=19	=19
8r	.	8ee\L	.	8gg'\L	.	2ryy
8AA'/L	.	8ee\J	.	8gg'\J	.	.
8AA'/	.	16ee\LL	.	16gg\LL	.	.
.	.	16dd\	.	16ff#\	.	.
8AA'/J	.	16ee\	.	16gg\	.	.
.	.	16ff#\JJ	.	16aa\JJ	.	.
=20	=20	=20	=20	=20	=20	=20
8r	.	4.cc#X\	.	4.ee\	.	2ryy
8AA'/L	.	.	.	.	.	.
8AA'/	.	.	.	.	.	.
8AA'/J	.	8a\	.	8a/	.	.
=21	=21	=21	=21	=21	=21	=21
*	*	*tremolo	*	*	*	*
!LO:TX:a:t=P:problem=tt. 21-25 zapisane repetycją	!	!LO:TX:a:t=P:problem=tt. 21-25 zapisane repetycją	!LO:DY:t=pp	!	!	!
8ryy	ppy	8ff#\Lyy	ppy	8ff#\L	.	2ryy
8D\L|yy	.	8ff#\	.	8aa\	.	.
8D\|yy	.	8ff#\	.	8aa\	.	.
8D\J|yy	.	8ff#\J	.	8aa\J	.	.
*	*	*Xtremolo	*	*	*	*
!LO:LB:g=original	!	!	!	!LO:LB:g=original	!	!
=22	=22	=22	=22	=22	=22	=22
8ryy	.	8.ff#\Lyy	.	8.aa\L	.	2ryy
8D\L|yy	.	.	.	.	.	.
.	.	16ee\Jkyy	.	16gg\Jk	.	.
8D\|yy	.	8dd\Lyy	.	8ff#\L	.	.
8D\J|yy	.	8dd\Jyy	.	8ff#\J	.	.
=23	=23	=23	=23	=23	=23	=23
8ryy	.	8ee\Lyy	.	8gg\L	.	2ryy
8AA'/Lyy	.	8ee\Jyy	.	8gg\J	.	.
8AA'/yy	.	16ee\LLyy	.	16gg\LL	.	.
.	.	16dd\yy	.	16ff#\	.	.
8AA'/Jyy	.	16ee\yy	.	16gg\	.	.
.	.	16ff#\JJyy	.	16aa\JJ	.	.
=24	=24	=24	=24	=24	=24	=24
8ryy	.	4.cc#X\yy	.	4.ee\	.	2ryy
8AA'/Lyy	.	.	.	.	.	.
8AA'/yy	.	.	.	.	.	.
8AA'/Jyy	.	8a\yy	.	8a/	.	.
!	!	!	!	!LO:TX:b:t=+	!	!
.	.	.	.	.	.	.
!	!	!LO:LB:g=original	!	!	!	!
=25	=25	=25	=25	=25	=25	=25
8r	.	8d/L	.	8r	.	2ryy
8A\L|	.	8a/	.	8aa\L	f	.
8B\|	.	8b/	.	8bb\	.	.
8c#X\J|	.	8cc#X/J	.	8ccc#X\J	.	.
=26	=26	=26	=26	=26	=26	=26
16d\LL|	.	16dd\LL	.	16ddd\LL	.	2ryy
16A\|	.	16a\	.	16aa\	.	.
16B\|	.	16b\	.	16bb\	.	.
16c#X\JJ|	.	16cc#X\JJ	.	16ccc#X\JJ	.	.
*	*	*rep	*	*	*	*
16d\LL|	.	16dd\LL	.	16ddd\LL	.	.
16A\|	.	16a\	.	16aa\	.	.
16B\|	.	16b\	.	16bb\	.	.
16c#X\JJ|	.	16cc#\JJ	.	16ccc#\JJ	.	.
*	*	*Xrep	*	*	*	*
=27	=27	=27	=27	=27	=27	=27
16d\LL	.	16dd\LL	.	16ddd\LL	.	2ryy
16A\	.	16a\	.	16aa\	.	.
16B\	.	16b\	.	16bb\	.	.
!LO:SIC:v:s=c#\JJ	!	!	!	!LO:SIC:v:s=ccc#\JJ	!	!
16c\JJ	.	16cc#X\JJ	.	16ccc\JJ	.	.
*	*	*rep	*	*	*	*
16d\LL	.	16dd\LL	.	16ddd\LL	.	.
16A\	.	16a\	.	16aa\	.	.
16B\	.	16b\	.	16bb\	.	.
!LO:SIC:v:s=c#\JJ	!	!	!	!LO:SIC:v:s=ccc#\JJ	!	!
16c\JJ	.	16cc#\JJ	.	16ccc\JJ	.	.
*	*	*Xrep	*	*	*	*
!LO:LB:g=original	!	!	!	!	!	!
=28	=28	=28	=28	=28	=28	=28
16d\LL	.	16dd\LL	.	16ddd\LL	.	2ryy
16A\	.	16a\	.	16aa\	.	.
16B\	.	16b\	.	16bb\	.	.
16G\JJ	.	16g\JJ	.	16gg\JJ	.	.
8F#\L	.	8f#/L	.	8ff#\L	.	.
8E\J	.	8e/J	.	8ee\J	.	.
=29	=29	=29	=29	=29	=29	=29
4D\	.	8d/L	.	8dd\L	.	2ryy
.	.	8dd/	.	8ff#\	.	.
4r	.	8ee/	p	8gg\	.	.
.	.	8ff#/J	.	8aa\J	.	.
=30	=30	=30	=30	=30	=30	=30
*tremolo	*	*	*	*	*	*
8AA/L	pp	8.gg\L	.	8.bb\L	.	2ryy
8AA/	.	.	.	.	.	.
.	.	16ff#\Jk	.	16aa\Jk	.	.
8AA/	.	4ee\	.	4gg\	.	.
8AA/J	.	.	.	.	.	.
=31	=31	=31	=31	=31	=31	=31
8AA/L	.	8cc#X\L	.	8ee\L	.	2ryy
8AA/	.	8cc#\	.	8ee\	.	.
8AA/	.	8dd\	.	8ff#\	.	.
8AA/J	.	8ee\J	.	8gg\J	.	.
*Xtremolo	*	*	*	*	*	*
=32	=32	=32	=32	=32	=32	=32
4D\	.	8.ff#\L	.	8.aa\L	.	2ryy
.	.	16ee\Jk	.	16gg\Jk	.	.
4r	.	4dd\	.	4ff#\	.	.
=33	=33	=33	=33	=33	=33	=33
8r	.	8d/L	.	8r	.	2ryy
8A\L|	.	8a/	.	8aa\L	.	.
8B\|	.	8b/	f	8bb\	.	.
8c#X\J|	.	8cc#X/J	.	8ccc#X\J	.	.
=34	=34	=34	=34	=34	=34	=34
16d\LL|	.	16dd\LL	.	16ddd\LL	.	2ryy
16A\|	.	16a\	.	16aa\	.	.
16B\|	.	16b\	.	16bb\	.	.
!LO:SIC:v:s=c#\JJ|	!	!LO:SIC:v:s=cc#\JJ	!	!	!	!
16c\JJ|	.	16cc\JJ	.	16ccc#X\JJ	.	.
*	*	*rep	*	*	*	*
16d\LL|	.	16dd\LL	.	16ddd\LL	.	.
16A\|	.	16a\	.	16aa\	.	.
16B\|	.	16b\	.	16bb\	.	.
!LO:SIC:v:s=c#\JJ|	!	!LO:SIC:v:s=cc#\JJ	!	!	!	!
16c\JJ|	.	16cc\JJ	.	16ccc#\JJ	.	.
*	*	*Xrep	*	*	*	*
!	!	!	!	!LO:LB:g=original	!	!
=35	=35	=35	=35	=35	=35	=35
!LO:TX:a:t=P:problem=takt zapisany repetycją	!	!	!	!	!	!
16d\LL|yy	.	16dd\LL	.	16ddd\LL	.	2ryy
16A\|yy	.	16a\	.	16aa\	.	.
16B\|yy	.	16b\	.	16bb\	.	.
!LO:SIC:v:s=c#\JJ|	!	!LO:SIC:v:s=cc#\JJ	!	!	!	!
16c\JJ|yy	.	16cc\JJ	.	16ccc#X\JJ	.	.
*	*	*rep	*	*	*	*
16d\LL|yy	.	16dd\LL	.	16ddd\LL	.	.
16A\|yy	.	16a\	.	16aa\	.	.
16B\|yy	.	16b\	.	16bb\	.	.
!LO:SIC:v:s=c#\JJ|	!	!LO:SIC:v:s=cc#\JJ	!	!	!	!
16c\JJ|yy	.	16cc\JJ	.	16ccc#\JJ	.	.
*	*	*Xrep	*	*	*	*
!	!	!LO:LB:g=original	!	!	!	!
=36	=36	=36	=36	=36	=36	=36
*	*	*	*	*tremolo	*	*
!	!	!LO:TX:a:t=P:problem=mixed beam	!	!	!	!
16D\LL	.	16d/LL	.	8ddd\L	.	2ryy
16d\	.	16dd\	.	.	.	.
16A\	.	16a\	.	8ddd\	.	.
16F#\JJ	.	16f#\JJ	.	.	.	.
!LO:LB:g=original	!	!LO:TX:a:t=P:problem=mixed beam	!	!	!	!
16D\LL	.	16d/LL	.	8ddd\	.	.
16d\	.	16dd\	.	.	.	.
16A\	.	16a\	.	8ddd\J	.	.
16F#\JJ	.	16f#\JJ	.	.	.	.
*	*	*	*	*Xtremolo	*	*
=37	=37	=37	=37	=37	=37	=37
4D\	.	4d/	.	4ddd\	.	2ryy
!	!	!	!	!LO:TX:a:t=37	!	!
4r	.	4r	.	4r	.	.
=38:|!|:	=38:|!|:	=38:|!|:	=38:|!|:	=38:|!|:	=38:|!|:	=38:|!|:
4G\|	pp	8r	.	8r	.	2ryy
.	.	8b/L	p	8dd\L|	p	.
4G\|	.	8g/	.	8b\|	.	.
.	.	8b/J	.	8bb\J|	.	.
=39	=39	=39	=39	=39	=39	=39
4A\|	.	8r	.	8r	.	2ryy
.	.	8a/L	.	8cc\L|	.	.
4F#\|	.	8f#/	.	8a\|	.	.
.	.	8a/J	.	8aa\J|	.	.
=40	=40	=40	=40	=40	=40	=40
4G\	.	8r	.	8r	.	2ryy
.	.	8g/L	.	8b\L|	.	.
4GG/	.	8g/	.	8g\|	.	.
.	.	8b/J	.	8gg\J|	.	.
=41	=41	=41	=41	=41	=41	=41
8D\L	f	8g/L	.	8b\L	.	2ryy
8D\J	.	8f#/J	.	8a\J	.	.
4r	.	8r	.	8r	.	.
.	.	8d/	.	8d/	.	.
=42	=42	=42	=42	=42	=42	=42
8r	p	16b\LL	.	(16dd\LL	f	2ryy
.	.	16cc\	.	16ee\	.	.
8G/L|	.	16b\	.	16dd\	.	.
.	.	16a\JJ	.	16cc\JJ)	.	.
8GG/|	.	8g/L	.	8dd\L	.	.
8G/J|	.	8b/J	.	8bb\J|	.	.
=43	=43	=43	=43	=43	=43	=43
8r	.	16a/LL	.	(16cc\LL	.	2ryy
.	.	16b/	.	16dd\	.	.
!LO:TX:a:t=P:problem=mixed beam	!	!	!	!	!	!
8F#\L|	.	16a/	.	16cc\	.	.
.	.	16g/JJ	.	16b\JJ)	.	.
8FF#/|	.	8f#/L	.	8cc\L|	.	.
8F#\J|	.	8cc/J	.	8aa\J|	.	.
=44	=44	=44	=44	=44	=44	=44
8r	.	16g/LL	.	(16b\LL	.	2ryy
.	.	16a/	.	16cc\	.	.
!LO:TX:a:t=P:problem=mixed beam	!	!	!	!	!	!
8G\L|	.	16g/	.	16b\	.	.
.	.	16f#/JJ	.	16a\JJ)	.	.
8GG/|	.	8g/L	.	8b\L|	.	.
!	!	!LO:TX:a:t=vi	!	!	!	!
8G\J|	.	8b/J	.	8gg\J|	.	.
!	!	!LO:PB:g=original	!	!	!	!
=45	=45	=45	=45	=45	=45	=45
!	!	!LO:TX:a:t=de.	!	!	!	!
8D\L	.	8g/L	.	8b\L	.	2ryy
8D\J	.	8f#/J	.	8a\J	.	.
!	!	!	!	!LO:TX:b:t=+	!	!
4r	.	8r	.	8r	.	.
.	.	8b\	.	8dd\	.	.
!LO:LB:g=original	!	!	!	!LO:LB:g=original	!	!
=46	=46	=46	=46	=46	=46	=46
4G\	f	4b\	.	16dd\LL	.	2ryy
.	.	.	.	16b\	.	.
.	.	.	.	16b\	.	.
.	.	.	.	16b\JJ	.	.
4G\	.	4g/	.	16b/LL	.	.
.	.	.	.	16g/	.	.
.	.	.	.	16g/	.	.
.	.	.	.	16g/JJ	.	.
=47	=47	=47	=47	=47	=47	=47
4Fn\	.	2fn/	.	16g/LL	.	2ryy
.	.	.	.	16fn/	.	.
.	.	.	.	16e/	.	.
.	.	.	.	16f/JJ	.	.
4F\	.	.	.	4fT/	.	.
=48	=48	=48	=48	=48	=48	=48
4E\	.	8e/	.	16e/LL	.	2ryy
.	.	.	.	16g/	.	.
.	.	8r	.	16a/	.	.
.	.	.	.	16b/JJ	.	.
4r	.	8a/L	.	8cc/L	.	.
.	.	8g/J	.	8b/J	.	.
=49	=49	=49	=49	=49	=49	=49
!LO:TX:a:t=1	!	!	!	!	!	!
2r	.	8g/L	.	8b\L	.	2ryy
.	.	8f#/J	.	8a\J	.	.
.	.	8r	.	8r	.	.
.	.	8a/	.	8ee\	.	.
=50	=50	=50	=50	=50	=50	=50
*	*	*tremolo	*	*	*	*
4e\	.	8a/L	.	16ee\LL	.	2ryy
.	.	.	.	16cc#X\	.	.
.	.	8a/	.	16cc#\	.	.
.	.	.	.	16cc#\JJ	.	.
4c#X\	.	8a/	.	16cc#\LL	.	.
.	.	.	.	16a\	.	.
.	.	8a/J	.	16a\	.	.
.	.	.	.	16a\JJ	.	.
*	*	*Xtremolo	*	*	*	*
=51	=51	=51	=51	=51	=51	=51
4A\	.	8a/L	.	16a/LL	.	2ryy
.	.	.	.	16g/	.	.
.	.	8g/J	.	16f#X/	.	.
.	.	.	.	16g/JJ	.	.
4G\	.	4g/	.	4gT/	.	.
=52	=52	=52	=52	=52	=52	=52
4F#\	.	16f#/LL	.	16f#/LL	.	2ryy
.	.	16d/	.	16d/	.	.
.	.	16f#/	.	16f#/	.	.
.	.	16a/JJ	.	16a/JJ	.	.
4r	.	16dd\LL	.	16dd\LL	.	.
.	.	16a\	.	16a\	.	.
.	.	16f#\	.	16f#\	.	.
.	.	16a\JJ	.	16a\JJ	.	.
=53	=53	=53	=53	=53	=53	=53
16D\LL	.	4d/	.	4d/	.	2ryy
16D\	.	.	.	.	.	.
16F#\	.	.	.	.	.	.
16A\JJ	.	.	.	.	.	.
4d\	.	16dd\LL	.	4r	.	.
.	.	16ccn\	.	.	.	.
.	.	16b\	.	.	.	.
.	.	16a\JJ	.	.	.	.
=54	=54	=54	=54	=54	=54	=54
*	*	*tremolo	*	*tremolo	*	*
8r	pp	8b\L	pp	8dd\L	p	2ryy
8G'\L	.	8b\	.	8dd\	.	.
8G'\	.	8b\	.	8dd\	.	.
8G'\J	.	8b\J	.	8dd\J	.	.
*	*	*Xtremolo	*	*Xtremolo	*	*
=55	=55	=55	=55	=55	=55	=55
8r	.	8.b\L	.	8.dd\L	.	2ryy
8G'\L	.	.	.	.	.	.
.	.	16a\Jk	.	16cc\Jk	.	.
8G'\	.	8g/L	.	8b\L	.	.
8G'\J	.	8g/J	.	8b\J	.	.
!LO:LB:g=original	!	!LO:LB:g=original	!	!LO:LB:g=original	!	!
=56	=56	=56	=56	=56	=56	=56
8r	.	8a/L	.	8cc\L	.	2ryy
8D\L|	.	8a/J	.	8cc\J	.	.
8D\|	.	16a/LL	.	(16cc\LL	.	.
.	.	16g/	.	16b\	.	.
8D\J|	.	16a/	.	16cc\	.	.
.	.	16b/JJ	.	16dd\JJ)	.	.
=57	=57	=57	=57	=57	=57	=57
8r	.	4.f#/	.	4.a/	.	2ryy
8D\L|	.	.	.	.	.	.
8D\|	.	.	.	.	.	.
8D\J|	.	8d/	.	8d/	.	.
=58	=58	=58	=58	=58	=58	=58
!LO:TX:a:t=P:problem=tt. 58-62 zapisane repetycją	!	!	!	!	!	!
8ryy	ppy	8g/L	.	8b\L	.	2ryy
8G'\Lyy	.	8b/	.	8dd\	.	.
8G'\yy	.	8b/	.	8dd\	.	.
8G'\Jyy	.	8b/J	.	8dd\J	.	.
=59	=59	=59	=59	=59	=59	=59
8ryy	.	8.b/L	.	8.dd\L	.	2ryy
8G'\Lyy	.	.	.	.	.	.
.	.	16a/Jk	.	16cc\Jk	.	.
8G'\yy	.	8g/L	.	8b\L	.	.
8G'\Jyy	.	8g/J	.	8b\J	.	.
!LO:LB:g=original	!	!	!	!	!	!
=60	=60	=60	=60	=60	=60	=60
8ryy	.	8a/L	.	8cc\L	.	2ryy
8D\L|yy	.	8a/J	.	8cc\J	.	.
8D\|yy	.	16a/LL	.	16cc\LL	.	.
.	.	16g/	.	16b\	.	.
8D\J|yy	.	16a/	.	16cc\	.	.
.	.	16b/JJ	.	16dd\JJ	.	.
=61	=61	=61	=61	=61	=61	=61
8ryy	.	4.f#/	.	4.a/	.	2ryy
8D\L|yy	.	.	.	.	.	.
8D\|yy	.	.	.	.	.	.
8D\J|yy	.	8d/	.	8d/	.	.
!	!	!	!	!LO:TX:b:t=+	!	!
.	.	.	.	.	.	.
=62	=62	=62	=62	=62	=62	=62
8r	f	8d/L	.	8r	.	2ryy
8D\L|	.	8d/	.	8dd\L|	f	.
8E\|	.	8e/	.	8ee\|	.	.
8F#\J|	.	8f#/J	.	8ff#\J|	.	.
=63	=63	=63	=63	=63	=63	=63
16G\LL|	.	16g/LL	.	16gg\LL|	.	2ryy
16D\|	.	16d/	.	16dd\|	.	.
16E\|	.	16e/	.	16ee\|	.	.
16F#\JJ|	.	16f#/JJ	.	16ff#\JJ|	.	.
*	*	*rep	*	*	*	*
16G\LL|	.	16g/LL	.	16gg\LL|	.	.
16D\|	.	16d/	.	16dd'\	.	.
16E\|	.	16e/	.	16ee'\	.	.
16F#\JJ|	.	16f#/JJ	.	16ff#'\JJ	.	.
*	*	*Xrep	*	*	*	*
=64	=64	=64	=64	=64	=64	=64
16G\LL	.	16g/LL	.	16gg\LL|	.	2ryy
16D\	.	16d/	.	16dd'\	.	.
16E\	.	16e/	.	16ee'\	.	.
16F#\JJ	.	16f#/JJ	.	16ff#'\JJ	.	.
*	*	*rep	*	*	*	*
16G\LL|	.	16g/LL	.	16gg\LL|	.	.
16D\|	.	16d/	.	16dd'\	.	.
16E\|	.	16e/	.	16ee'\	.	.
16F#\JJ|	.	16f#/JJ	.	16ff#'\JJ	.	.
*	*	*Xrep	*	*	*	*
=65	=65	=65	=65	=65	=65	=65
16G\LL	.	16g/LL	.	16gg\LL	.	2ryy
16D\	.	16d/	.	16dd\	.	.
16E\	.	16e/	.	16ff#\	.	.
16C\JJ	.	16c/JJ	.	16cc\JJ	.	.
8BB/L	.	8B/L	.	8b\L	.	.
8AA/J	.	8A/J	.	8a\J	.	.
!	!	!LO:LB:g=original	!	!LO:LB:g=original	!	!
=66	=66	=66	=66	=66	=66	=66
4GG/	.	4G/	.	8g/L	p	2ryy
.	.	.	.	8b/	.	.
4r	.	4r	.	8cc/	.	.
.	.	.	.	8dd/J	.	.
!LO:LB:g=original	!	!	!	!	!	!
=67	=67	=67	=67	=67	=67	=67
*tremolo	*	*	*	*	*	*
!	!LO:DY:t=pp&colon;	!	!	!	!	!
8D/L	pp	8.cc\L	.	8.ee\L	.	2ryy
8D/	.	.	.	.	.	.
.	.	16b\Jk	.	16dd\Jk	.	.
8D/	.	4a\	.	4cc\	.	.
8D/J	.	.	.	.	.	.
=68	=68	=68	=68	=68	=68	=68
8D/L	.	8f#/L	.	8a/L	.	2ryy
8D/	.	8f#/	.	8a/	.	.
8D/	.	8g/	.	8b/	.	.
8D/J	.	8a/J	.	8cc/J	.	.
=69	=69	=69	=69	=69	=69	=69
8GG/L	.	8.b/L	.	8.dd\L	.	2ryy
8GG/	.	.	.	.	.	.
.	.	16a/Jk	.	16b\Jk	.	.
8GG/	.	4g/	.	4g/	.	.
!	!	!	!	!LO:TX:b:t=+	!	!
8GG/J	.	.	.	.	.	.
*Xtremolo	*	*	*	*	*	*
=70	=70	=70	=70	=70	=70	=70
!	!LO:DY:t=fortiſsime.	!	!	!	!	!
8r	ff	8d/L	.	8r	.	2ryy
8D\L|	.	8d/	.	8dd\L	f	.
8E\|	.	8e/	.	8ee\	.	.
8F#\J|	.	8f#/J	.	8ff#\J	.	.
=71	=71	=71	=71	=71	=71	=71
16G\LL|	.	16g/LL	.	16gg\LL|	.	2ryy
16D\|	.	16d/	.	16dd\|	.	.
16E\|	.	16e/	.	16ee\|	.	.
16F#\JJ|	.	16f#/JJ	.	16ff#\JJ|	.	.
*	*	*rep	*	*	*	*
16G\LL|	.	16g/LL	.	16gg\LL|	.	.
16D\|	.	16d/	.	16dd'\	.	.
16E\|	.	16e/	.	16ee'\	.	.
16F#\JJ|	.	16f#/JJ	.	16ff#'\JJ	.	.
*	*	*Xrep	*	*	*	*
=72	=72	=72	=72	=72	=72	=72
16G\LL|	.	16g/LL	.	16gg\LL|	.	2ryy
16D\|	.	16d/	.	16dd'\	.	.
16E\|	.	16e/	.	16ee'\	.	.
16F#\JJ|	.	16f#/JJ	.	16ff#'\JJ	.	.
*	*	*rep	*	*	*	*
16G\LL|	.	16g/LL	.	16gg\LL|	.	.
16D\|	.	16d/	.	16dd'\	.	.
16E\|	.	16e/	.	16ee'\	.	.
16F#\JJ|	.	16f#/JJ	.	16ff#'\JJ	.	.
*	*	*Xrep	*	*	*	*
=73	=73	=73	=73	=73	=73	=73
*	*	*	*	*tremolo	*	*
!LO:TX:a:t=P:problem=mixed beam	!	!	!	!	!	!
16GG/LL|	.	16G/LL	.	8gg 8b 8d 8G/L	.	2ryy
16G\|	.	16g/	.	.	.	.
16D\|	.	16d/	.	8gg 8b 8d 8G/	.	.
16BB\JJ|	.	16B/JJ	.	.	.	.
!LO:TX:a:t=P:problem=mixed beam	!	!	!	!	!	!
16GG/LL|	.	16G/LL	.	8gg 8b 8d 8G/	.	.
16G\|	.	16g/	.	.	.	.
16D\|	.	16d/	.	8gg 8b 8d 8G/J	.	.
16BB\JJ|	.	16B/JJ	.	.	.	.
*	*	*	*	*Xtremolo	*	*
!LO:LB:g=original	!	!	!	!	!	!
=74	=74	=74	=74	=74	=74	=74
4GG/	.	4b 4d 4G/	.	4gg 4b 4d 4G/	.	2ryy
!LO:TX:b:i:t=Ad Majorem DEJ Gloriam!	!	!	!	!LO:TX:b:i:t=A.M.D.G.	!	!
4r	.	4r	.	4r	.	.
=:|!	=:|!	=:|!	=:|!	=:|!	=:|!	=:|!
*-	*-	*-	*-	*-	*-	*-
!!!system-decoration: s1[(s2,s3,s4)]
!!!RDF**kern: > = above
!!!RDF**kern: | = vertical stroke
!!!RDF**dynam: p= "p."
!!!RDF**dynam: pp = "pp."
!!!RDF**dynam: f = "for."
!!!ENC: Marcin Jachim
!!!END: 2020-05-09
!!!ENC: Marta Lawrence
!!!END: 2022-01-01
!!!YEC: Copyright 2022 Narodowy Instytut Fryderyka Chopina (https://polishscores.org)
!!!YEM: License CC-BY-4.0 (https://creativecommons.org/licenses/by/4.0)
